X:42
T:Star Set (Morning Star/ Wise Maid/ Star of Munster)
T:Morning Star, The
M:4/4
K:G
GA|:B2 BA BGEF|GABd gedc|1B2 BA BGEG|FGAF G3A:|2dBAc BE E/D/E|FGAF G3A|:
B/c/d ef gfge|fedf edBA|B/c/d ef g3e|afdf e2 ed|
B/c/d ef gfge|fedf edBA|Bdd^c ef|geaf gfed:|
T:Around the World (The Wise Maid)
M:C|
L:1/8
K:D
F2FG FEDE|FAAB AFED|d2 e/f/g fdec|dBAF BEE2|
F3G FEDE|FAAB AFED|d2 e/f/g "G"fdec |dBAG FDD2:|:
d2 AG FDFA|dfaf gfeg|fAdf eAce|dfed cAA2|
BDGB ADFA|dfaf gfed|Bd ce dBAG |FAEA D2||
T:Star of Munster
K:G
ed|cBAc BAGB|AGEF GEDF|1EAAB c3d|eaaf gedB:|2EAAB cded|c/B/A BA A2 cd:|:
eaab ageg|agbg agef| ggga gfef|g/f/e af gfed|
eaab ageg|agbg agef|g3e a ga |bgaf gfed:|

